X:0367
M:2/4
L:1/8
Q:1/4=90
K:A Minor
f   |edcd|efge   |dcBc |d2cd   |ecdB|cABe |EAA^G|A3||
g   |eaab|c'2c'd'|bgga |g2ag   |eaab|c'2ba|bgee |e3
g/f/|ecgc|c'cgc  |GABc |d2cd   |ecdB|cABe |EAA^G|A3|]

